X:1
T: Anne and Tam Leggat
C:Angus Fitchet
R:Reel
I:speed 232
Q:232
K:A
M:4/4
L:1/8
|:E2|A2Ac Bd cB|AB cd e2 fg|a2 ga fe cA|FB BA GB EG|
A2 c1/2B1/2A BE GB|AB cd e2 dc|Bc de fe fg|a2 A2 A2:|
|:AB|c2Bc AFF2|d2cd BG G2|e2 ce fe cA|Bc ^dB e2AB|
c2Bc AF F2|d2cd BGG2|AB cd ef ec|B2A2 A2:|
